X:0324
T:Cotillon.
M:2/4
L:1/16
Q:1/4=124
I: :: :: ::
Z:Jack Campin * www.campin.me.uk * 2009
K:G
GABc d2B2| e4   d2B2|c2B2A2G2 |AGFE D4  |\
GABc d2B2| e4   d2g2|f2d2e2f2 |g4   g4 :|
dcBc d2B2| cBAB c2A2|BAGA B2G2|AGFE F2D2|\
GABc d2g2| e4   d2c2|BAGB AGFA|G4   G4 :|
B2B2 c2c2|^c2c2 d2d2|e2c2g2B2 |AGFE D4  |\
B2d2d2c2 | B2g2g2c2 |B4   A4  |G8      :|

